icons/link/link.svg

<svg width="14" height="14" viewBox="0 0 14 14" fill="none" xmlns="http://www.w3.org/2000/svg">
<path d="M7.5 9.25L6.12132 10.6287C5.7235 11.0265 5.18393 11.25 4.62132 11.25V11.25C3.44975 11.25 2.5 10.3003 2.5 9.12868V9.12868C2.5 8.56607 2.7235 8.0265 3.12132 7.62868L3.5 7.25C4.14029 6.60971 5.00871 6.25 5.91421 6.25L7.5 6.25" stroke="red" stroke-linecap="round"/>
<path d="M6.5 7.75L8.08579 7.75C8.99129 7.75 9.85971 7.39029 10.5 6.75L10.8787 6.37132C11.2765 5.9735 11.5 5.43393 11.5 4.87132V4.87132C11.5 3.69975 10.5503 2.75 9.37868 2.75V2.75C8.81607 2.75 8.27651 2.97349 7.87868 3.37132L6.5 4.75" stroke="red" stroke-linecap="round"/>
</svg>

<svg xmlns="http://www.w3.org/2000/svg" width="14" height="14" fill="none" viewBox="0 0 14 14"><path stroke="red" stroke-linecap="round" d="m7.5 9.25-1.379 1.379a2.12 2.12 0 0 1-1.5.621v0A2.12 2.12 0 0 1 2.5 9.129v0c0-.563.224-1.102.621-1.5L3.5 7.25c.64-.64 1.509-1 2.414-1H7.5"/><path stroke="red" stroke-linecap="round" d="M6.5 7.75h1.586c.905 0 1.774-.36 2.414-1l.379-.379a2.12 2.12 0 0 0 .621-1.5v0c0-1.171-.95-2.121-2.121-2.121v0a2.12 2.12 0 0 0-1.5.621L6.5 4.75"/></svg>
